assets/img/icons/duotone-icons/General/Shield-disabled.svg

<?xml version="1.0" encoding="UTF-8"?>
<svg width="24px" height="24px" viewBox="0 0 24 24" version="1.1" xmlns="http://www.w3.org/2000/svg" xmlns:xlink="http://www.w3.org/1999/xlink">
    <!-- Generator: Sketch 52.2 (67145) - http://www.bohemiancoding.com/sketch -->
    <title>Stockholm-icons / General / Shield-disabled</title>
    <desc>Created with Sketch.</desc>
    <g id="Stockholm-icons-/-General-/-Shield-disabled" stroke="none" stroke-width="1" fill="none" fill-rule="evenodd">
        <rect id="bound" x="0" y="0" width="24" height="24"></rect>
        <path d="M4,4 L11.6314229,2.5691082 C11.8750185,2.52343403 12.1249815,2.52343403 12.3685771,2.5691082 L20,4 L20,13.2830094 C20,16.2173861 18.4883464,18.9447835 16,20.5 L12.5299989,22.6687507 C12.2057287,22.8714196 11.7942713,22.8714196 11.4700011,22.6687507 L8,20.5 C5.51165358,18.9447835 4,16.2173861 4,13.2830094 L4,4 Z" id="Path-50" fill="#335EEA" opacity="0.3"></path>
        <path d="M10.5857864,12 L9.17157288,10.5857864 C8.78104858,10.1952621 8.78104858,9.56209717 9.17157288,9.17157288 C9.56209717,8.78104858 10.1952621,8.78104858 10.5857864,9.17157288 L12,10.5857864 L13.4142136,9.17157288 C13.8047379,8.78104858 14.4379028,8.78104858 14.8284271,9.17157288 C15.2189514,9.56209717 15.2189514,10.1952621 14.8284271,10.5857864 L13.4142136,12 L14.8284271,13.4142136 C15.2189514,13.8047379 15.2189514,14.4379028 14.8284271,14.8284271 C14.4379028,15.2189514 13.8047379,15.2189514 13.4142136,14.8284271 L12,13.4142136 L10.5857864,14.8284271 C10.1952621,15.2189514 9.56209717,15.2189514 9.17157288,14.8284271 C8.78104858,14.4379028 8.78104858,13.8047379 9.17157288,13.4142136 L10.5857864,12 Z" id="Combined-Shape" fill="#335EEA"></path>
    </g>
</svg>

<svg width="24" height="24" viewBox="0 0 24 24" xmlns="http://www.w3.org/2000/svg"><g fill="none" fill-rule="evenodd"><path d="M0 0h24v24H0z"/><path d="M4 4l7.631-1.43a2 2 0 01.738 0L20 4v9.283a8.51 8.51 0 01-4 7.217l-3.47 2.169a1 1 0 01-1.06 0L8 20.5a8.51 8.51 0 01-4-7.217V4z" fill="#335EEA" opacity=".3"/><path d="M10.586 12l-1.414-1.414a1 1 0 111.414-1.414L12 10.586l1.414-1.414a1 1 0 111.414 1.414L13.414 12l1.414 1.414a1 1 0 11-1.414 1.414L12 13.414l-1.414 1.414a1 1 0 11-1.414-1.414L10.586 12z" fill="#335EEA"/></g></svg>
